src/assets/img/icons/user.svg

<svg width="24" height="24" viewBox="0 0 24 24" xmlns="http://www.w3.org/2000/svg">
<path fill-rule="evenodd" clip-rule="evenodd" d="M12 23C5.92487 23 1 18.0751 1 12C1 5.92487 5.92487 1 12 1C18.0751 1 23 5.92487 23 12C23 18.0751 18.0751 23 12 23ZM19.3995 17.1246C20.4086 15.6703 21 13.9042 21 12C21 7.02944 16.9706 3 12 3C7.02944 3 3 7.02944 3 12C3 13.9042 3.59138 15.6703 4.6005 17.1246C5.72595 15.6381 8.3706 15 12 15C15.6294 15 18.274 15.6381 19.3995 17.1246ZM17.9647 18.7398C17.672 17.6874 15.5694 17 12 17C8.43062 17 6.328 17.6874 6.03532 18.7398C7.6233 20.1462 9.71194 21 12 21C14.2881 21 16.3767 20.1462 17.9647 18.7398ZM12 15C9.76086 15 8 13.4274 8 10C8 7.75576 9.5791 6 12 6C14.4142 6 16 7.92158 16 10.2C16 13.4796 14.2181 15 12 15ZM10 10C10 12.2693 10.8182 13 12 13C13.1777 13 14 12.2984 14 10.2C14 8.95042 13.2157 8 12 8C10.7337 8 10 8.81582 10 10Z"/>
</svg>

<svg xmlns="http://www.w3.org/2000/svg" width="24" height="24" fill="none" viewBox="0 0 24 24">
    <path fill="#fff" fill-rule="evenodd" d="M12 23C5.925 23 1 18.075 1 12S5.925 1 12 1s11 4.925 11 11-4.925 11-11 11zm7.4-5.875C20.409 15.67 21 13.905 21 12c0-4.97-4.03-9-9-9s-9 4.03-9 9c0 1.904.591 3.67 1.6 5.125C5.726 15.638 8.37 15 12 15c3.63 0 6.274.638 7.4 2.125zm-1.435 1.615C17.672 17.687 15.569 17 12 17c-3.57 0-5.672.687-5.965 1.74C7.623 20.146 9.712 21 12 21s4.377-.854 5.965-2.26zM12 15c-2.24 0-4-1.573-4-5 0-2.244 1.58-4 4-4 2.414 0 4 1.922 4 4.2 0 3.28-1.782 4.8-4 4.8zm-2-5c0 2.27.818 3 2 3 1.178 0 2-.702 2-2.8 0-1.25-.784-2.2-2-2.2-1.266 0-2 .816-2 2z" clip-rule="evenodd"/>
</svg>
